;FLAVOR:Marlin
;TIME:3438
;Filament used: 1.7845m
;Layer height: 0.2
;MINX:18.346
;MINY:14.609
;MINZ:0.2
;MAXX:60.354
;MAXY:165.109
;MAXZ:2
;Generated with Cura_SteamEngine 4.9.1
M140 S65
M105
M190 S65
M104 S205
M105
M109 S205
M82 ;absolute extrusion mode
; Ender 3 Custom Start G-code
G92 E0 ; Reset Extruder
G28 ; Home all axes
G1 Z2.0 F3000 ; Move Z Axis up little to prevent scratching of Heat Bed
G1 X0.1 Y20 Z0.3 F5000.0 ; Move to start position
G1 X0.1 Y200.0 Z0.3 F1500.0 E15 ; Draw the first line
G1 X0.4 Y200.0 Z0.3 F5000.0 ; Move to side a little
G1 X0.4 Y20 Z0.3 F1500.0 E30 ; Draw the second line
G92 E0 ; Reset Extruder
G1 Z2.0 F3000 ; Move Z Axis up little to prevent scratching of Heat Bed
G1 X5 Y20 Z0.3 F5000.0 ; Move over to prevent blob squish
G92 E0
G92 E0
G1 F1500 E-6.5
;LAYER_COUNT:10
;LAYER:0
M107
G0 F6000 X20.932 Y18.554 Z0.2
;TYPE:SKIRT
G1 F1500 E0
G1 F1200 X21.564 Y17.861 E0.03119
G1 X22.253 Y17.225 E0.06238
G1 X22.994 Y16.65 E0.09358
G1 X23.781 Y16.14 E0.12477
G1 X24.609 Y15.699 E0.15597
G1 X25.471 Y15.33 E0.18716
G1 X26.362 Y15.036 E0.21836
G1 X27.274 Y14.818 E0.24955
G1 X28.201 Y14.68 E0.28072
G1 X29.055 Y14.622 E0.30919
G1 X29.375 Y14.613 E0.31984
G1 X29.684 Y14.609 E0.33012
G1 X48.647 Y14.609 E0.96083
G1 X49.503 Y14.62 E0.9893
G1 X50.439 Y14.674 E1.02049
G1 X51.367 Y14.806 E1.05166
G1 X52.281 Y15.018 E1.08287
G1 X53.173 Y15.307 E1.11406
G1 X54.038 Y15.67 E1.14526
G1 X54.868 Y16.106 E1.17644
G1 X55.659 Y16.611 E1.20765
G1 X56.403 Y17.182 E1.23885
G1 X57.096 Y17.814 E1.27004
G1 X57.733 Y18.502 E1.30123
G1 X58.308 Y19.243 E1.33242
G1 X58.819 Y20.029 E1.3636
G1 X59.261 Y20.857 E1.39482
G1 X59.63 Y21.719 E1.42601
G1 X59.925 Y22.609 E1.45719
G1 X60.143 Y23.521 E1.48838
G1 X60.283 Y24.449 E1.5196
G1 X60.341 Y25.31 E1.5483
G1 X60.35 Y25.63 E1.55894
G1 X60.354 Y25.939 E1.56922
G1 X60.353 Y60.289 E2.71171
G1 X60.333 Y61.652 E2.75705
G1 X60.337 Y64.638 E2.85636
G1 X60.354 Y65.721 E2.89239
G1 X60.354 Y74.057 E3.16964
G1 X60.347 Y76.119 E3.23823
G1 X60.354 Y77.066 E3.26972
G1 X60.354 Y92.857 E3.79494
G1 X60.347 Y94.919 E3.86352
G1 X60.354 Y95.866 E3.89502
G1 X60.353 Y111.274 E4.40749
G1 X60.347 Y111.684 E4.42113
G1 X60.354 Y113.808 E4.49177
G1 X60.354 Y114.606 E4.51831
G1 X60.347 Y116.668 E4.5869
G1 X60.354 Y117.615 E4.61839
G1 X60.354 Y129.916 E5.02753
G1 X60.347 Y131.978 E5.09611
G1 X60.354 Y132.925 E5.12761
G1 X60.354 Y133.687 E5.15295
G1 X60.347 Y135.484 E5.21272
G1 X60.354 Y136.548 E5.24811
G1 X60.347 Y139.018 E5.33026
G1 X60.354 Y139.965 E5.36176
G1 X60.353 Y153.509 E5.81224
G1 X60.344 Y154.236 E5.83642
G1 X60.293 Y155.173 E5.86763
G1 X60.161 Y156.101 E5.89881
G1 X59.952 Y157.015 E5.92999
G1 X59.665 Y157.908 E5.96119
G1 X59.303 Y158.774 E5.99241
G1 X58.869 Y159.605 E6.02359
G1 X58.365 Y160.396 E6.05478
G1 X57.796 Y161.141 E6.08596
G1 X57.165 Y161.836 E6.11718
G1 X56.478 Y162.474 E6.14837
G1 X55.739 Y163.051 E6.17955
G1 X54.953 Y163.563 E6.21075
G1 X54.127 Y164.006 E6.24193
G1 X53.265 Y164.378 E6.27315
G1 X52.376 Y164.674 E6.30432
G1 X51.464 Y164.894 E6.33552
G1 X50.537 Y165.035 E6.36671
G1 X49.653 Y165.096 E6.39618
G1 X49.332 Y165.105 E6.40686
G1 X49.024 Y165.109 E6.4171
G1 X29.919 Y165.108 E7.05254
G1 X29.221 Y165.099 E7.07576
G1 X28.285 Y165.047 E7.10694
G1 X27.356 Y164.915 E7.13814
G1 X26.442 Y164.705 E7.16934
G1 X25.549 Y164.418 E7.20053
G1 X24.684 Y164.055 E7.23173
G1 X23.853 Y163.621 E7.26292
G1 X23.062 Y163.117 E7.29411
G1 X22.317 Y162.547 E7.32531
G1 X21.623 Y161.916 E7.35651
G1 X20.986 Y161.229 E7.38767
G1 X20.409 Y160.489 E7.41888
G1 X19.897 Y159.703 E7.45008
G1 X19.454 Y158.876 E7.48128
G1 X19.083 Y158.015 E7.51247
G1 X18.787 Y157.125 E7.54366
G1 X18.568 Y156.213 E7.57486
G1 X18.427 Y155.286 E7.60604
G1 X18.367 Y154.397 E7.63568
G1 X18.358 Y154.064 E7.64676
G1 X18.354 Y153.767 E7.65664
G1 X18.354 Y83.855 E9.98192
G1 X18.348 Y83.757 E9.98519
G1 X18.347 Y83.2 E10.00371
G1 X18.354 Y83.027 E10.00947
G1 X18.354 Y79.072 E10.14101
G1 X18.361 Y77.01 E10.2096
G1 X18.354 Y75.952 E10.24479
G1 X18.361 Y73.49 E10.32667
G1 X18.354 Y72.543 E10.35817
G1 X18.354 Y63.25 E10.66726
G1 X18.346 Y63.115 E10.67176
G1 X18.347 Y62.589 E10.68925
G1 X18.354 Y62.433 E10.69445
G1 X18.355 Y26.118 E11.90229
G1 X18.365 Y25.453 E11.92441
G1 X18.419 Y24.516 E11.95562
G1 X18.553 Y23.588 E11.98681
G1 X18.765 Y22.674 E12.01802
G1 X19.054 Y21.782 E12.0492
G1 X19.419 Y20.918 E12.0804
G1 X19.855 Y20.088 E12.11158
G1 X20.361 Y19.298 E12.14278
G1 X20.932 Y18.554 E12.17398
G0 F6000 X21.326 Y18.708
G1 F1200 X21.956 Y18.036 E12.20461
G1 X22.642 Y17.422 E12.23524
G1 X23.378 Y16.87 E12.26584
G1 X24.16 Y16.383 E12.29648
G1 X24.981 Y15.967 E12.32709
G1 X25.835 Y15.623 E12.35771
G1 X26.715 Y15.354 E12.38832
G1 X27.616 Y15.163 E12.41895
G1 X28.53 Y15.051 E12.44958
G1 X29.066 Y15.022 E12.46743
G1 X29.386 Y15.013 E12.47808
G1 X29.684 Y15.009 E12.48799
G1 X48.647 Y15.009 E13.1187
G1 X49.497 Y15.02 E13.14697
G1 X50.416 Y15.073 E13.17759
G1 X51.327 Y15.206 E13.20821
G1 X52.223 Y15.417 E13.23883
G1 X53.097 Y15.705 E13.26944
G1 X53.944 Y16.068 E13.30009
G1 X54.755 Y16.503 E13.33069
G1 X55.525 Y17.007 E13.3613
G1 X56.249 Y17.576 E13.39193
G1 X56.921 Y18.206 E13.42257
G1 X57.536 Y18.891 E13.45319
G1 X58.089 Y19.627 E13.4838
G1 X58.576 Y20.408 E13.51442
G1 X58.993 Y21.229 E13.54504
G1 X59.338 Y22.083 E13.57568
G1 X59.607 Y22.963 E13.60628
G1 X59.799 Y23.864 E13.63692
G1 X59.912 Y24.777 E13.66752
G1 X59.941 Y25.321 E13.68564
G1 X59.95 Y25.641 E13.69629
G1 X59.954 Y25.939 E13.7062
G1 X59.953 Y60.284 E14.84852
G1 X59.933 Y61.67 E14.89462
G1 X59.937 Y64.58 E14.99141
G1 X59.953 Y65.543 E15.02345
G1 X59.954 Y74.056 E15.30659
G1 X59.947 Y76.122 E15.37531
G1 X59.954 Y77.069 E15.4068
G1 X59.954 Y92.856 E15.93188
G1 X59.947 Y94.922 E16.0006
G1 X59.954 Y95.869 E16.0321
G1 X59.953 Y111.269 E16.5443
G1 X59.947 Y111.68 E16.55797
G1 X59.954 Y113.81 E16.62882
G1 X59.954 Y114.605 E16.65526
G1 X59.947 Y116.671 E16.72397
G1 X59.954 Y117.618 E16.75547
G1 X59.954 Y129.915 E17.16447
G1 X59.947 Y131.981 E17.23319
G1 X59.954 Y132.928 E17.26469
G1 X59.954 Y133.686 E17.2899
G1 X59.947 Y135.487 E17.3498
G1 X59.954 Y136.547 E17.38506
G1 X59.947 Y139.021 E17.46734
G1 X59.954 Y139.968 E17.49884
G1 X59.953 Y153.504 E17.94905
G1 X59.944 Y154.231 E17.97323
G1 X59.893 Y155.15 E18.00384
G1 X59.762 Y156.062 E18.03449
G1 X59.552 Y156.958 E18.0651
G1 X59.266 Y157.833 E18.09572
G1 X58.905 Y158.68 E18.12634
G1 X58.471 Y159.492 E18.15696
G1 X57.969 Y160.264 E18.18759
G1 X57.401 Y160.989 E18.21822
G1 X56.773 Y161.662 E18.24884
G1 X56.089 Y162.278 E18.27945
G1 X55.354 Y162.832 E18.31007
G1 X54.574 Y163.321 E18.34069
G1 X53.754 Y163.74 E18.37131
G1 X52.901 Y164.086 E18.40193
G1 X52.021 Y164.357 E18.43256
G1 X51.121 Y164.55 E18.46317
G1 X50.207 Y164.665 E18.49381
G1 X49.642 Y164.696 E18.51263
G1 X49.321 Y164.705 E18.52331
G1 X49.024 Y164.709 E18.53319
G1 X29.924 Y164.708 E19.16846
G1 X29.226 Y164.699 E19.19168
G1 X28.307 Y164.647 E19.22229
G1 X27.396 Y164.516 E19.2529
G1 X26.5 Y164.306 E19.28351
G1 X25.625 Y164.019 E19.31414
G1 X24.778 Y163.657 E19.34478
G1 X23.966 Y163.223 E19.3754
G1 X23.195 Y162.721 E19.406
G1 X22.47 Y162.153 E19.43663
G1 X21.797 Y161.524 E19.46727
G1 X21.182 Y160.84 E19.49786
G1 X20.628 Y160.105 E19.52848
G1 X20.14 Y159.324 E19.55911
G1 X19.721 Y158.504 E19.58973
G1 X19.375 Y157.651 E19.62035
G1 X19.105 Y156.771 E19.65097
G1 X18.912 Y155.87 E19.68161
G1 X18.798 Y154.957 E19.71222
G1 X18.767 Y154.386 E19.73123
G1 X18.758 Y154.053 E19.74231
G1 X18.754 Y153.767 E19.75183
G1 X18.754 Y83.88 E22.07628
G1 X18.748 Y83.756 E22.08041
G1 X18.747 Y83.199 E22.09893
G1 X18.754 Y83.03 E22.10456
G1 X18.754 Y79.073 E22.23617
G1 X18.761 Y77.007 E22.30489
G1 X18.754 Y75.953 E22.33994
G1 X18.761 Y73.487 E22.42196
G1 X18.754 Y72.54 E22.45346
G1 X18.754 Y63.288 E22.76118
G1 X18.746 Y63.116 E22.76691
G1 X18.747 Y62.59 E22.78441
G1 X18.754 Y62.437 E22.7895
G1 X18.755 Y26.124 E23.99727
G1 X18.765 Y25.459 E24.0194
G1 X18.819 Y24.54 E24.05001
G1 X18.952 Y23.629 E24.08064
G1 X19.164 Y22.733 E24.11126
G1 X19.453 Y21.858 E24.14191
G1 X19.817 Y21.013 E24.17251
G1 X20.252 Y20.202 E24.20312
G1 X20.757 Y19.431 E24.23377
G1 X21.326 Y18.708 E24.26437
G0 F6000 X21.72 Y18.865
G1 F1200 X22.347 Y18.215 E24.29441
G1 X23.029 Y17.623 E24.32445
G1 X23.761 Y17.094 E24.35449
G1 X24.537 Y16.632 E24.38453
G1 X25.351 Y16.241 E24.41456
G1 X26.196 Y15.922 E24.4446
G1 X27.066 Y15.68 E24.47464
G1 X27.954 Y15.516 E24.50467
G1 X29.077 Y15.422 E24.54215
G1 X29.397 Y15.413 E24.5528
G1 X29.684 Y15.409 E24.56235
G1 X48.647 Y15.409 E25.19306
G1 X49.491 Y15.42 E25.22113
G1 X50.393 Y15.473 E25.25119
G1 X51.286 Y15.605 E25.28121
G1 X52.164 Y15.816 E25.31124
G1 X53.02 Y16.104 E25.34128
G1 X53.847 Y16.466 E25.37131
G1 X54.639 Y16.901 E25.40136
G1 X55.39 Y17.403 E25.43141
G1 X56.093 Y17.97 E25.46145
G1 X56.743 Y18.597 E25.49148
G1 X57.335 Y19.279 E25.52152
G1 X57.865 Y20.01 E25.55155
G1 X58.327 Y20.786 E25.58159
G1 X58.72 Y21.599 E25.61162
G1 X59.038 Y22.444 E25.64165
G1 X59.281 Y23.314 E25.6717
G1 X59.446 Y24.202 E25.70174
G1 X59.541 Y25.332 E25.73945
G1 X59.55 Y25.652 E25.7501
G1 X59.554 Y25.939 E25.75965
G1 X59.553 Y60.278 E26.90177
G1 X59.533 Y61.668 E26.948
G1 X59.537 Y64.587 E27.04509
G1 X59.553 Y65.55 E27.07712
G1 X59.554 Y74.055 E27.36
G1 X59.547 Y76.125 E27.42885
G1 X59.554 Y77.072 E27.46035
G1 X59.554 Y92.855 E27.98529
G1 X59.547 Y94.925 E28.05414
G1 X59.554 Y95.872 E28.08564
G1 X59.553 Y111.263 E28.59755
G1 X59.547 Y111.675 E28.61125
G1 X59.554 Y113.811 E28.6823
G1 X59.554 Y114.604 E28.70867
G1 X59.547 Y116.674 E28.77752
G1 X59.554 Y117.621 E28.80902
G1 X59.554 Y129.914 E29.21789
G1 X59.547 Y131.984 E29.28673
G1 X59.554 Y132.931 E29.31823
G1 X59.554 Y133.684 E29.34328
G1 X59.547 Y135.49 E29.40335
G1 X59.554 Y136.546 E29.43847
G1 X59.547 Y139.024 E29.52089
G1 X59.554 Y139.971 E29.55239
G1 X59.553 Y153.499 E30.00233
G1 X59.544 Y154.226 E30.02651
G1 X59.493 Y155.128 E30.05656
G1 X59.362 Y156.022 E30.08661
G1 X59.153 Y156.9 E30.11663
G1 X58.867 Y157.757 E30.14668
G1 X58.506 Y158.585 E30.17672
G1 X58.074 Y159.377 E30.20673
G1 X57.573 Y160.129 E30.23678
G1 X57.007 Y160.833 E30.26683
G1 X56.382 Y161.484 E30.29684
G1 X55.701 Y162.078 E30.3269
G1 X54.97 Y162.609 E30.35695
G1 X54.196 Y163.073 E30.38696
G1 X53.383 Y163.467 E30.41701
G1 X52.539 Y163.787 E30.44703
G1 X51.669 Y164.032 E30.4771
G1 X50.782 Y164.198 E30.50711
G1 X49.631 Y164.296 E30.54553
G1 X49.31 Y164.305 E30.55621
G1 X49.024 Y164.309 E30.56572
G1 X29.929 Y164.308 E31.20083
G1 X29.231 Y164.299 E31.22404
G1 X28.33 Y164.248 E31.25406
G1 X27.436 Y164.116 E31.28412
G1 X26.558 Y163.907 E31.31414
G1 X25.701 Y163.62 E31.34419
G1 X24.874 Y163.259 E31.37421
G1 X24.081 Y162.826 E31.40426
G1 X23.33 Y162.325 E31.43428
G1 X22.626 Y161.759 E31.46433
G1 X21.975 Y161.133 E31.49437
G1 X21.382 Y160.452 E31.5244
G1 X20.852 Y159.721 E31.55443
G1 X20.388 Y158.946 E31.58448
G1 X19.994 Y158.133 E31.61453
G1 X19.674 Y157.289 E31.64455
G1 X19.43 Y156.419 E31.6746
G1 X19.264 Y155.531 E31.70465
G1 X19.167 Y154.376 E31.7432
G1 X19.158 Y154.043 E31.75428
G1 X19.154 Y153.767 E31.76346
G1 X19.154 Y83.931 E34.08621
G1 X19.148 Y83.755 E34.09207
G1 X19.147 Y83.198 E34.11059
G1 X19.154 Y83.032 E34.11612
G1 X19.154 Y79.074 E34.24776
G1 X19.161 Y77.004 E34.31661
G1 X19.154 Y75.954 E34.35154
G1 X19.161 Y73.484 E34.43369
G1 X19.154 Y72.537 E34.46519
G1 X19.154 Y63.365 E34.77025
G1 X19.146 Y63.117 E34.7785
G1 X19.147 Y62.591 E34.796
G1 X19.154 Y62.441 E34.80099
G1 X19.155 Y26.13 E36.0087
G1 X19.165 Y25.465 E36.03082
G1 X19.219 Y24.563 E36.06088
G1 X19.352 Y23.67 E36.09091
G1 X19.563 Y22.792 E36.12094
G1 X19.852 Y21.936 E36.15099
G1 X20.215 Y21.109 E36.18103
G1 X20.649 Y20.318 E36.21104
G1 X21.152 Y19.567 E36.2411
G1 X21.72 Y18.865 E36.27113
G1 F1500 E29.77113
;MESH:JNTUB_panel_4HP_generic.stl
G0 F6000 X32.457 Y48.146
G0 X32.305 Y48.435
G0 X34.015 Y52.571
G0 X37.86 Y62.876
G0 X39.265 Y63.767
G0 X41.014 Y65.15
G0 X41.069 Y67.572
G0 X41.524 Y67.581
G0 X41.524 Y67.881
G0 X42.382 Y67.881
G0 X42.654 Y70.909
;TYPE:WALL-INNER
G1 F1500 E36.27113
G1 F1200 X42.654 Y68.097 E36.36466
G1 X47.093 Y68.097 E36.5123
G1 X47.093 Y65.516 E36.59815
G1 X47.41 Y65.154 E36.61415
G1 X47.686 Y64.74 E36.6307
G1 X47.69 Y64.734 E36.63094
G1 X47.866 Y64.378 E36.64415
G1 X47.942 Y64.444
G1 X47.948 Y64.449 E36.64441
G1 X48.754 Y65.152 E36.67998
G1 X48.754 Y74.166 E36.97979
G1 X47.922 Y74.166 E37.00746
G1 X47.912 Y74.136 E37.00851
G1 X47.69 Y73.684 E37.02526
G1 X47.41 Y73.265 E37.04202
G1 X47.077 Y72.886 E37.0588
G1 X46.699 Y72.554 E37.07554
G1 X46.279 Y72.274 E37.09232
G1 X45.829 Y72.052 E37.10901
G1 X45.351 Y71.889 E37.12581
G1 X44.856 Y71.791 E37.14259
G1 X44.354 Y71.758 E37.15933
G1 X43.852 Y71.791 E37.17606
G1 X43.357 Y71.889 E37.19284
G1 X42.88 Y72.052 E37.20961
G1 X42.429 Y72.274 E37.22633
G1 X42.01 Y72.554 E37.24309
G1 X41.631 Y72.886 E37.25985
G1 X41.299 Y73.265 E37.27661
G1 X41.019 Y73.684 E37.29337
G1 X40.797 Y74.135 E37.31009
G1 X40.634 Y74.612 E37.32685
G1 X40.536 Y75.107 E37.34363
G1 X40.503 Y75.609 E37.36037
G1 X40.536 Y76.112 E37.37713
G1 X40.634 Y76.608 E37.39395
G1 X40.695 Y76.784 E37.40014
G1 X40.695 Y77.414 E37.4211
G1 X40.96 Y77.414 E37.42991
G1 X41.019 Y77.534 E37.43436
G1 X41.299 Y77.954 E37.45115
G1 X41.631 Y78.333 E37.46791
G1 X42.01 Y78.665 E37.48467
G1 X42.429 Y78.945 E37.50143
G1 X42.88 Y79.167 E37.51815
G1 X43.357 Y79.33 E37.53491
G1 X43.852 Y79.429 E37.5517
G1 X44.354 Y79.46 E37.56843
G1 X44.856 Y79.429 E37.58516
G1 X45.351 Y79.33 E37.60195
G1 X45.829 Y79.167 E37.61875
G1 X46.279 Y78.945 E37.63543
G1 X46.699 Y78.665 E37.65222
G1 X47.077 Y78.333 E37.66896
G1 X47.41 Y77.954 E37.68574
G1 X47.691 Y77.534 E37.70254
G1 X47.749 Y77.414 E37.70698
G1 X48.754 Y77.414 E37.7404
G1 X48.754 Y92.966 E38.25767
G1 X42.989 Y92.966 E38.44941
G1 X42.958 Y92.876 E38.45258
G1 X42.733 Y92.418 E38.46955
G1 X42.449 Y91.995 E38.48649
G1 X42.177 Y91.684 E38.50024
G1 X43.835 Y85.497 E38.71328
G1 X43.93 Y85.142 E38.7255
G1 X44.175 Y85.416 E38.73235
G1 X45.571 Y86.975 E38.80195
G1 X46.419 Y86.475 E38.83469
G1 X44.299 Y80.404 E39.04857
G1 X44.203 Y80.128 E39.05829
G1 X43.981 Y80.319 E39.064
G1 X39.109 Y84.517 E39.2779
G1 X39.593 Y85.373 E39.31061
G1 X41.584 Y84.721 E39.38029
G1 X41.933 Y84.607 E39.3925
G1 X41.838 Y84.962 E39.39935
G1 X40.328 Y90.594 E39.59329
G1 X39.863 Y90.502 E39.60906
G1 X39.354 Y90.468 E39.62602
G1 X38.846 Y90.502 E39.64296
G1 X38.344 Y90.601 E39.65998
G1 X37.86 Y90.766 E39.67698
G1 X37.404 Y90.991 E39.6939
G1 X36.979 Y91.274 E39.71088
G1 X36.595 Y91.611 E39.72787
G1 X36.259 Y91.995 E39.74484
G1 X35.975 Y92.418 E39.76179
G1 X35.75 Y92.877 E39.77879
G1 X35.586 Y93.359 E39.79572
G1 X35.486 Y93.861 E39.81275
G1 X35.453 Y94.369 E39.82968
G1 X35.486 Y94.878 E39.84665
G1 X35.586 Y95.38 E39.86367
G1 X35.75 Y95.862 E39.8806
G1 X35.975 Y96.32 E39.89758
G1 X36.259 Y96.744 E39.91455
G1 X36.595 Y97.128 E39.93152
G1 X36.979 Y97.465 E39.94851
G1 X37.224 Y97.629 E39.95832
G1 X37.404 Y97.748 E39.9655
G1 X37.656 Y97.872 E39.97484
G1 X37.86 Y97.973 E39.98241
G1 X38.15 Y98.071 E39.99259
G1 X38.344 Y98.138 E39.99942
G1 X38.667 Y98.202 E40.01037
G1 X38.846 Y98.238 E40.01644
G1 X39.139 Y98.256 E40.0262
G1 X39.225 Y98.261 E40.02907
G1 X39.354 Y98.27 E40.03337
G1 X39.863 Y98.238 E40.05033
G1 X40.364 Y98.138 E40.06733
G1 X40.848 Y97.973 E40.08433
G1 X41.304 Y97.748 E40.10125
G1 X41.729 Y97.465 E40.11823
G1 X42.114 Y97.128 E40.13525
G1 X42.449 Y96.744 E40.1522
G1 X42.733 Y96.319 E40.1692
G1 X42.785 Y96.214 E40.17309
G1 X48.754 Y96.214 E40.37162
G1 X48.754 Y111.195 E40.86989
